X:1
T:Captain Byng
M:2/4
L:1/8
R:Polka
K:Gmaj
~g3 d | BG GA/B/ | (3cBA a>g | fd ef | ~g3 d | BG GA/B/ | (3cBA dF | ~G3 z :|
|: BG dG | BG GA/B/ | cA eA | cA A>c | BG dG | BG GA/B/ | (3cBA dF | ~G3 z :|
